Hatter-kde/actions/22/restoration.svg

<?xml version="1.0" encoding="UTF-8"?>
<svg viewBox="0 0 22 22" xmlns="http://www.w3.org/2000/svg">
 <defs id="defs3051">
  <style id="current-color-scheme" type="text/css">.ColorScheme-Text {
        color:#363636;
      }</style>
 </defs>
 <path class="ColorScheme-Text" d="m4 3v7h1 12 1v-7h-1-12-1zm1 1h12v5h-12v-5zm-1 7v8h1 8 1v-0.009766l0.007812 0.009766 3.9922-3.9922v-0.007812-1.4062-2.5938h-1-12-1zm1 1h12v2h-4v1 3h-8v-6z" fill="currentColor"/>
</svg>

<svg xmlns="http://www.w3.org/2000/svg" viewBox="0 0 22 22">
  <defs id="defs3051">
    <style type="text/css" id="current-color-scheme">
      .ColorScheme-Text {
        color:#363636;
      }
      </style>
  </defs>
 <path 
    style="fill:currentColor;fill-opacity:1;stroke:none" 
    d="M 4 3 L 4 10 L 5 10 L 17 10 L 18 10 L 18 3 L 17 3 L 5 3 L 4 3 z M 5 4 L 17 4 L 17 9 L 5 9 L 5 4 z M 4 11 L 4 19 L 5 19 L 13 19 L 14 19 L 14 18.990234 L 14.007812 19 L 18 15.007812 L 18 15 L 18 13.59375 L 18 11 L 17 11 L 5 11 L 4 11 z M 5 12 L 17 12 L 17 14 L 13 14 L 13 15 L 13 18 L 5 18 L 5 12 z "
    class="ColorScheme-Text"
    />  
</svg>
